app/dist/common/images/albis-leasing-ag.svg

<svg height="18" viewBox="0 0 18 18" width="18" xmlns="http://www.w3.org/2000/svg"><path d="m0 0h18v18h-18z" fill="#f0f3fa"/><path d="m9.5 10.53h-2.46l-.34.9c-.12.33-.2.78-.2.94 0 .25.18.35.6.35h.57v.28h-2.67v-.28h.23c.6 0 .67-.22 1-1.12l2.72-7.6h.35l2.88 8.72h.82v.28h-3.33v-.28h.52zm-.15-.44-1.03-3.09-1.12 3.09z" fill="#1d3b6c"/></svg>

<!-- by TradingView --><svg width="18" height="18" viewBox="0 0 18 18" xmlns="http://www.w3.org/2000/svg"><path fill="#F0F3FA" d="M0 0h18v18H0z"/><path d="M9.5 10.53H7.04l-.34.9c-.12.33-.2.78-.2.94 0 .25.18.35.6.35h.57V13H5v-.28h.23c.6 0 .67-.22 1-1.12L8.95 4h.35l2.88 8.72H13V13H9.67v-.28h.52l-.69-2.19Zm-.15-.44L8.32 7 7.2 10.09h2.15Z" fill="#1D3B6C"/></svg>
